X:39
T:Gladl{\aa}ten
R:polska J
H:efter Pekkos Helmer
A:Bingsj\"o, Dalarna
Z:id:hn-jp-39
M:3/4
L:1/16
K:A
e2 | a4 efed c3e | a4 a2ga b3g | a4 efed c3A | B4 B6 e2 | 
a4 efed c3e | a4 a2ga b3g | a4 efed c3A |1 BG3 A6 :|2 BG3 A6 c2 ||
|: d3f e3d c3A | B3A GA3 B3c | d3f e3d c3A | B4 B6 c2 | 
d3f e3d c3A | B3A GA3 B3c | d3f e3d c3e | a4 a2ga b3g | 
a4 efed c3A |1 B2AG A6 c2 :|2 B2AG A6 ||

